svg/u0035_20e3.svg

<svg viewBox="0 0 128 128" xmlns="http://www.w3.org/2000/svg">
  <g>
    <path d="M116.46,3.96h-104c-4.42,0-8,3.58-8,8v104c0,4.42,3.58,8,8,8h104c4.42,0,8-3.58,8-8v-104 C124.46,7.54,120.88,3.96,116.46,3.96z" fill="#427687"/>
    <path d="M122.16,6.26c-1.54-1.46-3.58-2.28-5.7-2.3h-104c-4.42,0-8,3.58-8,8v104 c0.02,2.12,0.84,4.16,2.3,5.7l16.8-16.8h76c3.26-0.01,5.89-2.64,5.9-5.9v-76L122.16,6.26z" fill="#8CAFBF"/>
    <path d="M44.36,61.56l3.4-31.2c0.12-0.91,0.88-1.59,1.8-1.6h33.2c0.99-0.01,1.79,0.79,1.8,1.78 c0,0.01,0,0.01,0,0.02v6.2c0.01,0.99-0.79,1.79-1.78,1.8c-0.01,0-0.01,0-0.02,0h-23.8c-0.92,0.01-1.68,0.69-1.8,1.6l-1.3,11.5 c-0.14,0.97,0.53,1.87,1.5,2c0.3,0.04,0.61,0.01,0.9-0.1c2.53-0.94,5.2-1.42,7.9-1.4c6.5,0,11.5,2.1,15.2,6.2s5.4,9.7,5.4,16.8 c0,6.9-2,12.5-6,16.6s-9.5,6.1-16.4,6.1c-6.2,0-11.4-1.8-15.5-5.3c-3.59-3.05-5.91-7.33-6.5-12c-0.15-0.99,0.53-1.92,1.52-2.08 c0.09-0.01,0.19-0.02,0.28-0.02h7.5c0.85-0.01,1.6,0.57,1.8,1.4c0.46,2.35,1.61,4.51,3.3,6.2c2.1,1.83,4.82,2.76,7.6,2.6 c3.17,0.16,6.22-1.22,8.2-3.7c1.9-2.5,2.9-5.9,2.9-10.2c0.16-3.58-0.98-7.09-3.2-9.9c-2.29-2.45-5.55-3.77-8.9-3.6 c-1.77-0.03-3.53,0.24-5.2,0.8c-1.48,0.62-2.83,1.5-4,2.6c-0.42,0.41-1.03,0.56-1.6,0.4l-6.6-1.6c-0.94-0.05-1.66-0.85-1.61-1.79 C44.35,61.64,44.35,61.6,44.36,61.56z" fill="#FAFAFA"/>
    <path d="M40.16,12.86c0-2.3-1.6-3-10.8-2.7c-7.7,0.3-11.5,1.2-13.8,4 s-2.9,8.5-3,15.3c0,4.8,0,9.3,2.5,9.3c3.4,0,3.4-7.9,6.2-12.3C26.66,17.76,40.16,15.86,40.16,12.86z" opacity="0.5" fill="#B4E1ED" enable-background="new "/>
  </g>
</svg>

<svg viewBox="0 0 128 128" xmlns="http://www.w3.org/2000/svg">
  <defs/>
  <path d="M116.46,3.96 L12.46,3.96 C8.04,3.96 4.46,7.54 4.46,11.96 L4.46,115.96 C4.46,120.38 8.04,123.96 12.46,123.96 L116.46,123.96 C120.88,123.96 124.46,120.38 124.46,115.96 L124.46,11.96 C124.46,7.54 120.88,3.96 116.46,3.96 Z" fill="#427687"/>
  <path d="M122.16,6.26 C120.62,4.8 118.58,3.98 116.46,3.96 L12.46,3.96 C8.04,3.96 4.46,7.54 4.46,11.96 L4.46,115.96 C4.48,118.08 5.3,120.12 6.76,121.66 L23.56,104.86 L99.56,104.86 C102.82,104.85 105.45,102.22 105.46,98.96 L105.46,22.96 L122.16,6.26 Z" fill="#8CAFBF"/>
  <path d="M44.36,61.56 L47.76,30.36 C47.88,29.45 48.64,28.77 49.56,28.76 L82.76,28.76 C83.75,28.75 84.55,29.55 84.56,30.54 C84.56,30.55 84.56,30.55 84.56,30.56 L84.56,36.76 C84.57,37.75 83.77,38.55 82.78,38.56 C82.77,38.56 82.77,38.56 82.76,38.56 L58.96,38.56 C58.04,38.57 57.28,39.25 57.16,40.16 L55.86,51.66 C55.72,52.63 56.39,53.53 57.36,53.66 C57.66,53.7 57.97,53.67 58.26,53.56 C60.79,52.62 63.46,52.14 66.16,52.16 C72.66,52.16 77.66,54.26 81.36,58.36 C85.06,62.46 86.76,68.06 86.76,75.16 C86.76,82.06 84.76,87.66 80.76,91.76 C76.76,95.86 71.26,97.86 64.36,97.86 C58.16,97.86 52.96,96.06 48.86,92.56 C45.27,89.51 42.95,85.23 42.36,80.56 C42.21,79.57 42.89,78.64 43.88,78.48 C43.97,78.47 44.07,78.46 44.16,78.46 L51.66,78.46 C52.51,78.45 53.26,79.03 53.46,79.86 C53.92,82.21 55.07,84.37 56.76,86.06 C58.86,87.89 61.58,88.82 64.36,88.66 C67.53,88.82 70.58,87.44 72.56,84.96 C74.46,82.46 75.46,79.06 75.46,74.76 C75.62,71.18 74.48,67.67 72.26,64.86 C69.97,62.41 66.71,61.09 63.36,61.26 C61.59,61.23 59.83,61.5 58.16,62.06 C56.68,62.68 55.33,63.56 54.16,64.66 C53.74,65.07 53.13,65.22 52.56,65.06 L45.96,63.46 C45.02,63.41 44.3,62.61 44.35,61.67 C44.35,61.64 44.35,61.6 44.36,61.56 Z" fill="#FAFAFA"/>
  <path d="M40.16,12.86 C40.16,10.56 38.56,9.86 29.36,10.16 C21.66,10.46 17.86,11.36 15.56,14.16 C13.26,16.96 12.66,22.66 12.56,29.46 C12.56,34.26 12.56,38.76 15.06,38.76 C18.46,38.76 18.46,30.86 21.26,26.46 C26.66,17.76 40.16,15.86 40.16,12.86 Z" fill="#B4E1ED" opacity="0.5"/>
</svg>
